X: 1
T: Pressley Manor
C: David Kaynor
%D:2018
N: Composed for the Pressley family of Wilson Holler, NC, March 2018
Z: ABC by MB, Nov 2020
M: 4/4
L: 1/8
K: D
|: "A"A,2 \
| "D"D2AD "A"GFED | "D"D2A,2 A,2DA | "G"A2d2 B2AG | "Em"A4-"A"A2A,2 |\
| "D"D2AD "A"GFED | "D"A3A "G"B2AG | "D"A2Ad "G"d2"A"c2 | "D"d4 d2 :|
|: "A"fg \
| "D"a3f "A"gfec | "D"d2D2 D2A2 | "G"B3A A2de | "A"e4- e2fg |\
| "D"a3f "A"gfec | "D"d2AF "G"G2FG | "A(D)"A2Ad "G"d2"A"c2 | "D"d4 d2 :|
